src/main/resources/icons/JavaUltimateIcons/icons/javaee/interceptorMethod.svg

<svg xmlns="http://www.w3.org/2000/svg" width="16" height="16" viewBox="0 0 16 16">
  <g fill="none" fill-rule="evenodd">
    <path fill="#F98B9E" fill-opacity=".6" d="M14.8491776,9.45216878 C14.296133,9.16332374 13.6671397,9 13,9 C10.790861,9 9,10.790861 9,13 C9,13.6671397 9.16332374,14.296133 9.45216878,14.8491776 C8.98367536,14.9480154 8.49790863,15 8,15 C4.134,15 1,11.866 1,8 C1,4.134 4.134,1 8,1 C11.866,1 15,4.134 15,8 C15,8.49790863 14.9480154,8.98367536 14.8491776,9.45216878 Z"/>
    <circle cx="13" cy="13" r="3" fill="#62B543"/>
    <path fill="#231F20" fill-opacity=".7" d="M11.9940791,9.12754629 C11.6432873,9.21841015 11.3111802,9.35568018 11.0046997,9.53241441 C11.0046997,9.15140378 11.0046997,8.64059898 11.0046997,8 C11.0041373,7.73961181 11.0041373,7 9.98162842,7 C8.95911952,7 9,7.686 9,8 L9,11.0003 L8,11.0003 L8,8 C7.999,7.537 7.95,7 7,7 C6.05,7 6.05,7.7657 6,8 C5.96666667,8.1562 5.96666667,9.1563 6,11.0003 L5,11.0003 L5,6.0003 L6,6.0003 L6,6.299231 C6.26527507,6.09994367 6.63194173,6.0003 7.1,6.0003 C7.94411621,6.0003 8.28363037,6.19411621 8.5986,6.6 C8.6576,6.502 9.11224365,6.0003 9.98162842,6.0003 C11.6351318,6.0003 11.9912,7.251 11.9922,8 L11.9940791,9.12754629 Z"/>
  </g>
</svg>

<svg xmlns="http://www.w3.org/2000/svg" width="16" height="16" viewBox="0 0 16 16"><rect id="frame" width="16" height="16" fill="none"/><g fill="none" fill-rule="evenodd"><path fill="#F98B9E" fill-opacity=".6" d="M14.85 9.452a4 4 0 0 0-5.397 5.397 7 7 0 1 1 5.397-5.397z"/><circle cx="13" cy="13" r="3" fill="#62B543"/><path fill="#231F20" fill-opacity=".7" d="M11.994 9.128c-.35.09-.683.228-.99.404V8c0-.26 0-1-1.022-1C8.959 7 9 7.686 9 8v3H8V8c-.001-.463-.05-1-1-1s-.95.766-1 1c-.033.156-.033 1.156 0 3H5V6h1v.3c.265-.2.632-.3 1.1-.3.844 0 1.184.194 1.499.6.059-.098.513-.6 1.383-.6 1.653 0 2.01 1.251 2.01 2l.002 1.128z"/></g></svg>
